Simply-White-Circles/scalable/apps/etcher-electron.svg

<?xml version="1.0" encoding="UTF-8" standalone="no"?><svg xmlns:dc="http://purl.org/dc/elements/1.1/" xmlns:cc="http://creativecommons.org/ns#" xmlns:rdf="http://www.w3.org/1999/02/22-rdf-syntax-ns#" xmlns="http://www.w3.org/2000/svg" width="48" height="48" viewBox="0 0 12.7 12.7"><metadata><rdf:RDF><cc:Work><dc:format>image/svg+xml</dc:format><dc:type rdf:resource="http://purl.org/dc/dcmitype/StillImage"/><dc:title/></cc:Work></rdf:RDF></metadata><path d="M6.34.07a6.29 6.29 0 0 0-6.29 6.3 6.29 6.29 0 0 0 6.3 6.28 6.29 6.29 0 0 0 6.28-6.29A6.29 6.29 0 0 0 6.34.07zM6.32 1l.01.01a5.4 5.4 0 0 1 5.4 5.4 5.4 5.4 0 0 1-5.4 5.41 5.4 5.4 0 0 1-5.41-5.4A5.4 5.4 0 0 1 6.32 1zM4.06 3.26v.75h1.12v-.75zm3.35 0v.75h1.12v-.75zm-3.35 2.6v.75h3.3a2.05 2.05 0 0 0-.41.38H4.43v.74h2.13a2.05 2.05 0 0 0-.07.37H4.8v.75h1.76a2.05 2.05 0 0 0 1.97 1.49 2.05 2.05 0 0 0 2.04-2.05 2.05 2.05 0 0 0-2.04-2.05v-.37zM8.16 7h.74v1.67h.46l-.83.93-.84-.93h.47z" fill="#e6e6e6"/><g stroke="#e6e6e6" fill="none" stroke-width=".56"><path d="M3.5 2.66h5.6v2.26H3.5zM2.94 4.94c-.2 0-.37.16-.37.37v3.72c0 .2.17.38.37.38h4.34l.26-2.6 1.34-.23.8.65.13 2.1c.12-.06.2-.16.2-.3V5.31c0-.2-.16-.37-.37-.37z"/></g></svg>

<?xml version="1.0" encoding="UTF-8" standalone="no"?>
<svg
   xmlns:dc="http://purl.org/dc/elements/1.1/"
   xmlns:cc="http://creativecommons.org/ns#"
   xmlns:rdf="http://www.w3.org/1999/02/22-rdf-syntax-ns#"
   xmlns:svg="http://www.w3.org/2000/svg"
   xmlns="http://www.w3.org/2000/svg"
   xmlns:sodipodi="http://sodipodi.sourceforge.net/DTD/sodipodi-0.dtd"
   xmlns:inkscape="http://www.inkscape.org/namespaces/inkscape"
   width="48"
   height="48"
   viewBox="0 0 12.7 12.7"
   version="1.1"
   id="svg10"
   sodipodi:docname="etcher-electron.svg"
   inkscape:version="0.92.4 (5da689c313, 2019-01-14)">
  <defs
     id="defs14" />
  <sodipodi:namedview
     pagecolor="#ffffff"
     bordercolor="#666666"
     borderopacity="1"
     objecttolerance="10"
     gridtolerance="10"
     guidetolerance="10"
     inkscape:pageopacity="0"
     inkscape:pageshadow="2"
     inkscape:window-width="1087"
     inkscape:window-height="480"
     id="namedview12"
     showgrid="false"
     inkscape:zoom="4.9166667"
     inkscape:cx="2.1355932"
     inkscape:cy="24"
     inkscape:window-x="0"
     inkscape:window-y="25"
     inkscape:window-maximized="0"
     inkscape:current-layer="svg10" />
  <metadata
     id="metadata2">
    <rdf:RDF>
      <cc:Work>
        <dc:format>image/svg+xml</dc:format>
        <dc:type
           rdf:resource="http://purl.org/dc/dcmitype/StillImage" />
        <dc:title></dc:title>
      </cc:Work>
    </rdf:RDF>
  </metadata>
  <path
     d="M 6.34,0.07 A 6.29,6.29 0 0 0 0.05,6.37 6.29,6.29 0 0 0 6.35,12.65 6.29,6.29 0 0 0 12.63,6.36 6.29,6.29 0 0 0 6.34,0.07 Z M 6.32,1 6.33,1.01 a 5.4,5.4 0 0 1 5.4,5.4 5.4,5.4 0 0 1 -5.4,5.41 A 5.4,5.4 0 0 1 0.92,6.42 5.4,5.4 0 0 1 6.32,1 Z M 4.06,3.26 V 4.01 H 5.18 V 3.26 Z m 3.35,0 V 4.01 H 8.53 V 3.26 Z m -3.35,2.6 v 0.75 h 3.3 A 2.05,2.05 0 0 0 6.95,6.99 H 4.43 V 7.73 H 6.56 A 2.05,2.05 0 0 0 6.49,8.1 H 4.8 V 8.85 H 6.56 A 2.05,2.05 0 0 0 8.53,10.34 2.05,2.05 0 0 0 10.57,8.29 2.05,2.05 0 0 0 8.53,6.24 V 5.87 Z M 8.16,7 H 8.9 V 8.67 H 9.36 L 8.53,9.6 7.69,8.67 h 0.47 z"
     id="path4"
     inkscape:connector-curvature="0"
     style="fill:#e6e6e6" />
  <g
     id="g8"
     style="fill:none;stroke:#e6e6e6;stroke-width:0.56">
    <path
       d="M 3.5,2.66 H 9.1 V 4.92 H 3.5 Z M 2.94,4.94 c -0.2,0 -0.37,0.16 -0.37,0.37 v 3.72 c 0,0.2 0.17,0.38 0.37,0.38 h 4.34 l 0.26,-2.6 1.34,-0.23 0.8,0.65 0.13,2.1 c 0.12,-0.06 0.2,-0.16 0.2,-0.3 V 5.31 c 0,-0.2 -0.16,-0.37 -0.37,-0.37 z"
       id="path6"
       inkscape:connector-curvature="0" />
  </g>
</svg>
